votai_general_theme/static/img/icon-propuesta.svg

<?xml version="1.0" encoding="UTF-8" standalone="no"?>
<svg width="69px" height="65px" viewBox="0 0 69 65" version="1.1" xmlns="http://www.w3.org/2000/svg" xmlns:xlink="http://www.w3.org/1999/xlink">
    <!-- Generator: Sketch 39.1 (31720) - http://www.bohemiancoding.com/sketch -->
    <title>Artboard 2 Copy</title>
    <desc>Created with Sketch.</desc>
    <defs></defs>
    <g id="Page-1" stroke="none" stroke-width="1" fill="none" fill-rule="evenodd">
        <g id="Artboard-2-Copy">
            <g id="Group-5" transform="translate(2.000000, 3.000000)">
                <g id="Icon" fill="#FFC80A">
                    <circle id="Oval" cx="30" cy="30" r="30"></circle>
                </g>
                <path d="M25.3640957,31.8262424 L40.4736433,31.8262424 C40.9315084,31.8262424 41.3020031,31.4540557 41.3020031,30.9954685 C41.3020031,30.5368813 40.9315084,30.1646946 40.4736433,30.1646946 L25.3640957,30.1646946 C24.9062306,30.1646946 24.533524,30.5368813 24.533524,30.9954685 C24.533524,31.4540557 24.9062306,31.8262424 25.3640957,31.8262424 L25.3640957,31.8262424 Z M35.7899269,6.66154776 L49.5115019,6.66154776 C51.1118178,6.66154776 52.4035724,7.91989326 52.4533403,9.52827149 C52.4666118,9.97799708 52.8348946,10.3324606 53.2828061,10.3324606 L53.308243,10.3324606 C53.7661081,10.3180605 54.1244373,9.93479684 54.1122718,9.47620966 C54.033749,6.96616485 52.0120646,5 49.5115019,5 L35.7899269,5 C35.3320618,5 34.9604611,5.3721867 34.9604611,5.83077388 C34.9604611,6.28936106 35.3320618,6.66154776 35.7899269,6.66154776 L35.7899269,6.66154776 Z M25.3640957,37.6505211 L40.4736433,37.6505211 C40.9315084,37.6505211 41.3020031,37.2783344 41.3020031,36.8197472 C41.3020031,36.3611601 40.9315084,35.9889734 40.4736433,35.9889734 L25.3640957,35.9889734 C24.9062306,35.9889734 24.533524,36.3611601 24.533524,36.8197472 C24.533524,37.2783344 24.9062306,37.6505211 25.3640957,37.6505211 L25.3640957,37.6505211 Z M25.3640957,43.4792307 L49.5258793,43.4792307 C49.9826384,43.4792307 50.355345,43.107044 50.355345,42.6484568 C50.355345,42.1898696 49.9826384,41.8176829 49.5258793,41.8176829 L25.3640957,41.8176829 C24.9062306,41.8176829 24.533524,42.1898696 24.533524,42.6484568 C24.533524,43.107044 24.9062306,43.4792307 25.3640957,43.4792307 L25.3640957,43.4792307 Z M53.285018,33.7547455 C52.8271529,33.7547455 52.4544463,34.1269322 52.4544463,34.5855194 L52.4544463,44.385328 C52.4544463,46.0136448 51.1339369,47.3384522 49.5115019,47.3384522 L25.6062997,47.3384522 C23.9816528,47.3384522 22.6589315,46.0136448 22.6589315,44.385328 L22.6589315,19.9949147 C22.6589315,19.5363275 22.2884368,19.1641408 21.8305717,19.1641408 C21.3716006,19.1641408 21,19.5363275 21,19.9949147 L21,44.385328 C21,46.9297115 23.0681345,49 25.6062997,49 L49.5115019,49 C52.0485611,49 54.1144837,46.9297115 54.1144837,44.385328 L54.1144837,34.5855194 C54.1144837,34.1269322 53.7428831,33.7547455 53.285018,33.7547455 L53.285018,33.7547455 Z M40.4736433,24.3393082 L25.3640957,24.3393082 C24.9062306,24.3393082 24.533524,24.7114949 24.533524,25.1700821 C24.533524,25.6286693 24.9062306,26.0008559 25.3640957,26.0008559 L40.4736433,26.0008559 C40.9315084,26.0008559 41.3020031,25.6286693 41.3020031,25.1700821 C41.3020031,24.7114949 40.9315084,24.3393082 40.4736433,24.3393082 L40.4736433,24.3393082 Z M21.8305717,18.7675847 L30.2347184,18.7675847 C32.6246857,18.7675847 34.5722712,16.819143 34.5722712,14.4231912 L34.5722712,5.83077388 C34.5722712,5.49292583 34.3687756,5.19052414 34.0568965,5.06092342 C33.7450174,4.93575349 33.3866882,5.00775389 33.1511199,5.24701677 L21.2399921,17.3541614 C21.0055298,17.5923166 20.9358547,17.9489955 21.0652513,18.2569357 C21.194648,18.5670913 21.4965735,18.7675847 21.8305717,18.7675847 L21.8305717,18.7675847 Z M32.9133397,7.85786214 L32.9133397,14.4231912 C32.9133397,15.9019687 31.7100615,17.106037 30.2347184,17.106037 L23.8124418,17.106037 L32.9133397,7.85786214 L32.9133397,7.85786214 Z M61.0156385,10.8132018 C59.0116493,9.43965561 57.5893921,8.82931373 56.4082329,8.82931373 C55.3929669,8.82931373 54.5657131,9.28457782 53.9552263,10.1818136 C53.9308953,10.2183677 53.8700678,10.2947989 53.7849093,10.404461 C53.5814137,10.6647702 53.2551572,11.0856956 52.897934,11.5730829 L42.9764179,26.0783948 C42.8326439,26.2833191 42.7452735,26.4173506 42.7452735,26.4173506 C42.6656448,26.5391974 42.6180887,26.6809828 42.6103471,26.827199 L42.0894426,36.3954987 C42.0750652,36.6713156 42.1967201,36.938271 42.417911,37.1044258 C42.563897,37.2151956 42.7397437,37.2716882 42.9189083,37.2716882 C43.0095966,37.2716882 43.0991789,37.2572882 43.1887612,37.2262726 L52.6701074,33.9574543 C52.8371065,33.899854 52.9819865,33.7912995 53.0815224,33.6450833 L62.869218,19.5030965 L64.3832694,17.3397613 C66.1903987,14.695685 63.7108492,12.6663814 61.0156385,10.8132018 L61.0156385,10.8132018 Z M43.8125194,35.2534616 L43.8512278,34.5533961 L44.499317,35.0164141 L43.8125194,35.2534616 L43.8125194,35.2534616 Z M46.4258894,34.3540104 L43.9585053,32.588339 L44.2195106,27.800866 C44.8543283,28.0955138 45.588682,28.6172398 45.8319919,29.2918282 C45.9315278,29.5676451 46.169308,29.7714617 46.4579621,29.8268466 C46.4745514,29.829062 48.0118279,30.1536176 48.5072954,31.419717 C48.6189968,31.7066109 48.880002,31.9082121 49.1863513,31.9425507 C49.195199,31.9436584 50.0600552,32.0754745 50.9083222,32.808771 L46.4258894,34.3540104 L46.4258894,34.3540104 Z M52.3106722,31.8450733 C51.4148492,30.9400836 50.429444,30.5501737 49.8565596,30.3928805 C49.1609144,29.097981 47.8857491,28.531947 47.208905,28.3126227 C46.6382326,27.2193243 45.563245,26.5890439 44.8543283,26.2700267 L53.7318235,13.2567847 L53.9696037,12.9277982 C55.148551,13.0906299 56.7964229,13.8161724 58.3215339,14.8640552 C59.8753997,15.9318765 61.1560947,17.2168068 61.7278731,18.255828 L52.3106722,31.8450733 L52.3106722,31.8450733 Z M63.0118861,16.4037561 L62.7497749,16.7792659 C61.9689711,15.6782136 60.7468916,14.5151302 59.261595,13.4949398 C57.8293842,12.5101959 56.3507233,11.8056996 55.0622865,11.4645285 C55.0711342,11.4534515 55.0866175,11.4346206 55.0943592,11.4246513 C55.220438,11.2618196 55.3044905,11.1510498 55.3232918,11.1211419 C55.6241113,10.6791702 55.9503678,10.4908615 56.4082329,10.4908615 C57.2111557,10.4908615 58.414434,11.0447107 60.0788952,12.1834248 C63.7462397,14.7034389 63.5925121,15.5530437 63.0118861,16.4037561 L63.0118861,16.4037561 Z" id="Fill-72" stroke="#4990E2" stroke-width="0.550000012" fill="#4990E2"></path>
            </g>
        </g>
    </g>
</svg>

<svg width="66" height="60" viewBox="0 0 66 60" xmlns="http://www.w3.org/2000/svg"><title>Group 5</title><g fill="none" fill-rule="evenodd"><circle cx="30" cy="30" r="30" fill="#FFC80A"/><path d="M25.364 31.826h15.11c.458 0 .828-.372.828-.83 0-.46-.37-.83-.828-.83h-15.11c-.458 0-.83.37-.83.83 0 .458.372.83.83.83zM35.79 6.662h13.722c1.6 0 2.892 1.258 2.94 2.866.015.45.383.804.83.804h.026c.458-.014.816-.397.804-.856-.078-2.51-2.1-4.476-4.6-4.476H35.79c-.458 0-.83.372-.83.83 0 .46.372.832.83.832zm-10.426 30.99h15.11c.458 0 .828-.374.828-.832 0-.46-.37-.83-.828-.83h-15.11c-.458 0-.83.37-.83.83 0 .458.372.83.83.83zm0 5.827h24.162c.457 0 .83-.373.83-.832 0-.458-.373-.83-.83-.83H25.364c-.458 0-.83.372-.83.83 0 .46.372.83.83.83zm27.92-9.725c-.457 0-.83.372-.83.83v9.8c0 1.63-1.32 2.953-2.942 2.953H25.606c-1.624 0-2.947-1.324-2.947-2.953v-24.39c0-.46-.372-.83-.83-.83-.458 0-.83.37-.83.83v24.39C21 46.93 23.068 49 25.606 49h23.906c2.537 0 4.602-2.07 4.602-4.615v-9.8c0-.458-.37-.83-.83-.83zm-12.81-9.416h-15.11c-.458 0-.83.37-.83.83 0 .46.372.83.83.83h15.11c.458 0 .828-.37.828-.83 0-.46-.37-.83-.828-.83zM21.83 18.767h8.405c2.39 0 4.337-1.95 4.337-4.345V5.83c0-.337-.203-.64-.515-.77-.312-.124-.67-.052-.906.187L21.24 17.354c-.234.238-.304.595-.175.903.13.31.432.51.766.51zm11.083-10.91v6.565c0 1.48-1.203 2.683-2.678 2.683h-6.423l9.1-9.248zm28.103 2.955C59.012 9.44 57.59 8.83 56.408 8.83c-1.015 0-1.842.455-2.453 1.352-.024.036-.085.113-.17.222-.204.26-.53.682-.887 1.17l-9.922 14.504c-.143.205-.23.34-.23.34-.08.12-.128.263-.136.41l-.52 9.567c-.015.276.107.543.328.71.146.11.322.167.5.167.092 0 .18-.015.27-.046l9.482-3.27c.167-.056.312-.165.412-.31l9.787-14.143 1.513-2.163c1.807-2.644-.672-4.674-3.367-6.527zm-17.203 24.44l.038-.7.65.463-.687.237zm2.613-.9L43.96 32.59l.26-4.787c.634.296 1.37.817 1.612 1.492.1.276.337.48.626.535.017.002 1.554.327 2.05 1.593.11.287.372.488.678.523.01 0 .874.132 1.722.866l-4.482 1.544zm5.885-2.508c-.895-.905-1.88-1.295-2.453-1.452-.696-1.295-1.97-1.86-2.648-2.08-.572-1.094-1.647-1.724-2.356-2.043l8.878-13.013.238-.33c1.18.164 2.826.89 4.352 1.937 1.553 1.068 2.834 2.353 3.406 3.392l-9.417 13.59zm10.702-15.44l-.262.374c-.78-1.102-2.003-2.265-3.488-3.285-1.433-.985-2.91-1.69-4.2-2.03l.032-.04c.126-.163.21-.274.23-.304.3-.44.626-.63 1.084-.63.803 0 2.006.555 3.67 1.693 3.668 2.52 3.515 3.37 2.934 4.22z" stroke="#4990E2" stroke-width=".55" fill="#4990E2"/></g></svg>
